src/images/crypto-icon-svg/gup.svg

<svg xmlns="http://www.w3.org/2000/svg" width="32" height="32" viewBox="0 0 32 32">
  <g fill="none">
    <circle cx="16" cy="16" r="16" fill="#37DCD8"/>
    <path fill="#FFF" d="M15.9896177,12.6785074 L13.2057104,9.87510431 C14.0415036,8.51611121 14.9754704,7.22091158 16.0000432,6 C17.0228599,7.21548371 17.9554662,8.50513527 18.7903051,9.85850429 L15.9896177,12.6785074 Z M21.7082546,15.4895106 C22.4944368,17.691013 23.6468024,19.8926154 22.5482523,22.0074178 C21.846544,23.3430378 20.762047,24.4351112 19.4357927,25.1416213 C15.8171501,27.0612234 11.3371624,25.6514218 9.43078461,22.0074178 C8.32151105,19.8926154 9.6138763,17.5176128 10.4000585,15.3160104 C11.122397,13.6934086 11.8518844,12.1972069 12.6794708,10.7593053 L15.9896177,14.092609 L19.3177363,10.7411053 C20.1927835,12.255007 20.9492779,13.8133087 21.7082546,15.4895106 Z"/>
  </g>
</svg>

<svg xmlns="http://www.w3.org/2000/svg" width="32" height="32"><g fill="none"><circle cx="16" cy="16" r="16" fill="#37DCD8"/><path fill="#FFF" d="M15.99 12.679l-2.784-2.804A32.574 32.574 0 0 1 16 6a32.464 32.464 0 0 1 2.79 3.859l-2.8 2.82zm5.718 2.81c.786 2.202 1.939 4.404.84 6.518a7.503 7.503 0 0 1-3.112 3.135c-3.619 1.92-8.099.51-10.005-3.135-1.11-2.114.183-4.49.97-6.691.721-1.623 1.45-3.119 2.278-4.557l3.31 3.334 3.329-3.352c.875 1.514 1.631 3.072 2.39 4.749z"/></g></svg>
